media/fig-opo-vee.svg

<!-- Created with Inkscape (http://www.inkscape.org/) -->
<svg xmlns:inkscape="http://www.inkscape.org/namespaces/inkscape" xmlns:sodipodi="http://sodipodi.sourceforge.net/DTD/sodipodi-0.dtd" xmlns="http://www.w3.org/2000/svg" xmlns:svg="http://www.w3.org/2000/svg" xmlns:vectornator="http://vectornator.io" viewBox="0 0 3520.8933 1695.8486" version="1.1" id="svg1" inkscape:version="1.4.2 (ebf0e940d0, 2025-05-08)" sodipodi:docname="fig-opo-vee.svg" xml:space="preserve">
  <sodipodi:namedview id="namedview1" pagecolor="#282a36" bordercolor="#44475a" borderopacity="0.24705882" inkscape:showpageshadow="2" inkscape:pageopacity="0.0" inkscape:pagecheckerboard="0" inkscape:deskcolor="#44475a" inkscape:document-units="px" inkscape:zoom="0.23756286" inkscape:cx="2009.9944" inkscape:cy="2047.8791" inkscape:window-width="2234" inkscape:window-height="1418" inkscape:window-x="0" inkscape:window-y="0" inkscape:window-maximized="1" inkscape:current-layer="g17-9" showguides="true">
    <sodipodi:guide position="3258.7194,444.47647" orientation="1,0" id="guide1" inkscape:locked="false"/>
    <sodipodi:guide position="2259.8433,580.1789" orientation="0,-1" id="guide2" inkscape:locked="false"/>
    <sodipodi:guide position="3414.6661,444.75781" orientation="0,-1" id="guide3" inkscape:locked="false"/>
    <sodipodi:guide position="3104.454,-240.46847" orientation="0,-1" id="guide4" inkscape:locked="false"/>
    <sodipodi:guide position="3371.9941,-402.64923" orientation="0,1" id="guide5" inkscape:locked="false" inkscape:label="" inkscape:color="rgb(0,134,229)"/>
  </sodipodi:namedview>
  <defs id="defs1">
    <inkscape:path-effect effect="knot" id="path-effect954" is_visible="true" lpeversion="1" switcher_size="15" interruption_width="3" prop_to_stroke_width="true" add_stroke_width="inkscape_1.0_and_up" both="false" inverse_width="false" add_other_stroke_width="inkscape_1.0_and_up" crossing_points_vector="726.20509 | 342.12732 | 0 | 0 | 0 | 3 | 0.83949445 | 3.4847435 | 1 | 262.46978 | 340.0839 | 0 | 0 | 1 | 4 | 1.5854418 | 4.7931247 | 1 | 500.65425 | 875.88589 | 0 | 0 | 2 | 5 | 2.8163314 | 5.6118873 | 1"/>
  </defs>
  <g inkscape:label="Layer 1" inkscape:groupmode="layer" id="layer1" transform="translate(6.0000048,190.77211)">
    <g style="clip-rule:evenodd;fill-rule:nonzero;stroke-linecap:round;stroke-linejoin:round;stroke-miterlimit:10" id="g1" transform="translate(496.98775,15.934086)" class="">
      <g id="Layer-1" vectornator:layerName="Layer 1" transform="translate(-6.4614711,0.44143466)">

        

    </g>
    </g>
    <g id="layer1-3" transform="translate(-520.4657,73.5817)">
      <g id="g8" transform="translate(514.46431,232.99118)" style="fill:#aaaaaa" class="">
        <path d="m 441.626,97.989 77.882,-77.95 M 6.03,533.96 83.427,456.497 m 360.527,2.683 74.293,74.358 M 7.15,22 81.262,96.176" class="" style="fill:#aaaaaa;stroke:#ff851b;stroke-width:16.5705;stroke-linecap:butt;stroke-linejoin:miter;stroke-dasharray:none;stroke-opacity:1" id="path1" transform="matrix(1.33333,0,0,-1.33333,-0.091,719.755)"/>
        <g style="display:inline;fill:#aaaaaa" id="g2" class="">
          <path d="M 95.987,238.496 C 55.967,234.87 22.49,206.592 12.233,167.749 8.22,152.551 8.22,134.381 12.233,119.183 21.913,82.528 51.87,55.449 89.637,49.218 c 6.991,-1.154 22.642,-1.154 29.633,0 41.257,6.807 72.625,38.175 79.432,79.431 1.85,11.211 0.998,27.643 -2.028,39.1 -9.657,36.57 -39.811,63.872 -77.228,69.921 -4.454,0.72 -18.981,1.232 -23.46,0.826 m 22.401,-5.72 c 52.756,-8.696 86.477,-59.58 73.702,-111.214 C 183.383,86.378 154.491,60.009 118.211,54.137 111.312,53.02 97.204,53.019 90.518,54.134 51.205,60.693 21.449,90.482 15.132,129.606 c -1.068,6.615 -1.147,20.3 -0.155,26.736 6.489,42.08 39.946,73.562 82.067,77.22 4.23,0.368 17.254,-0.112 21.343,-0.787" class="" style="display:inline;fill:#aaaaaa;fill-opacity:1;stroke:none;stroke-width:0.352778;stroke-opacity:1" transform="matrix(3.68074,0,0,3.68391,-33.947,-177.97)" id="path2"/>
        </g>
        <path d="m 187.064,352.704 h 151.76" class="" style="fill:#aaaaaa;fill-opacity:0.766511;stroke:#ff4136;stroke-width:8.50394;stroke-miterlimit:3.6;stroke-dasharray:none" id="path3" transform="matrix(1.33333,0,0,-1.33333,-0.091,719.755)"/>
        <path d="M 262.944,202.316 V 352.704" class="" style="fill:#aaaaaa;fill-opacity:0.766511;stroke:#ff4136;stroke-width:8.50394;stroke-miterlimit:3.6;stroke-dasharray:none" id="path4" transform="matrix(1.33333,0,0,-1.33333,12.701,719.755)"/>
        <path d="M 243.755,333.456 V 202.316" class="" style="fill:#aaaaaa;fill-opacity:0.766511;stroke:#ff4136;stroke-width:8.50395;stroke-miterlimit:3.6;stroke-dasharray:none" id="path5" transform="matrix(1.33333,0,0,-1.33333,12.701,719.755)"/>
      </g>
      <g id="g17" transform="translate(958.60749,227.21376)" style="fill:#aaaaaa" class="">
        <path d="m 1439.7911,594.88074 103.8424,103.93307 M 858.99785,13.587523 962.19359,116.87126 m 480.70151,-3.57732 99.057,-99.143752 M 860.49118,696.19915 959.30693,597.29806" class="" style="fill:#aaaaaa;stroke:#ff851b;stroke-width:22.0939;stroke-linecap:butt;stroke-linejoin:miter;stroke-dasharray:none;stroke-opacity:1" id="path13"/>
        <path d="M 1170.4051,706.40521 C 1023.1018,693.04735 899.88171,588.87374 862.12836,445.77963 c -14.77081,-55.98807 -14.77081,-122.92471 0,-178.91277 C 897.75793,131.83313 1008.0219,32.076536 1147.0324,9.1220924 c 25.732,-4.2512322 83.3393,-4.2512322 109.0713,0 151.8563,25.0763756 267.3138,140.6332676 292.3686,292.6166576 6.8093,41.30031 3.6733,101.83432 -7.4646,144.04088 -35.5449,134.72059 -146.5339,235.2987 -284.2562,257.58267 -16.394,2.65241 -69.8641,4.53858 -86.3501,3.04291 m 82.4522,-21.07197 C 1447.0348,653.29796 1571.153,465.84589 1524.1315,275.63088 1492.087,146.01619 1385.7431,48.875165 1252.2058,27.243246 1226.8124,23.128318 1174.8845,23.124634 1150.2751,27.232194 1005.5742,51.39496 896.05006,161.13495 872.79883,305.26425 c -3.93103,24.36906 -4.22181,74.78337 -0.57052,98.49302 23.88432,155.01893 147.03089,270.99578 302.06729,284.47153 15.5695,1.35568 63.5075,-0.4126 78.558,-2.89924" class="" style="display:inline;fill:#aaaaaa;fill-opacity:1;stroke:none;stroke-width:1.29904;stroke-opacity:1" id="path14"/>
        <path d="m 1100.3759,255.26159 h 202.3462" class="" style="fill:#aaaaaa;fill-opacity:0.766511;stroke:#ff4136;stroke-width:11.3386;stroke-miterlimit:3.6;stroke-dasharray:none" id="path15"/>
        <path d="M 1214.341,455.77842 V 255.26159" class="" style="fill:#aaaaaa;fill-opacity:0.766511;stroke:#ff4136;stroke-width:11.3386;stroke-miterlimit:3.6;stroke-dasharray:none" id="path16"/>
        <path d="m 1188.7557,280.92552 v 174.8529" class="" style="fill:#aaaaaa;fill-opacity:0.766511;stroke:#ff4136;stroke-width:11.3386;stroke-miterlimit:3.6;stroke-dasharray:none" id="path17"/>
      </g>
      <text xml:space="preserve" style="font-size:490.929px;font-family:Inter;-inkscape-font-specification:Inter;text-align:start;writing-mode:lr-tb;direction:ltr;text-anchor:start;fill:#aaaaaa;stroke:none;stroke-width:87.6656;stroke-linecap:round;stroke-linejoin:round;stroke-dasharray:87.6656, 175.332;stroke-dashoffset:0;paint-order:stroke fill markers" x="1343.2061" y="762.15552" id="text32" class="">
        <tspan sodipodi:role="line" id="tspan32" x="1343.2061" y="762.15552" style="stroke-width:87.6656" class="">V</tspan>
      </text>
      <g id="g5" transform="rotate(90,4050.2608,459.5705)">
        <g id="g8-5" transform="translate(3326.3351,599.27455)" style="fill:#aaaaaa" class="">
          <path d="m 441.626,97.989 77.882,-77.95 C 635.20734,-101.59687 635.20734,-101.59687 753.28769,22 l 74.112,74.176003 M 6.03,533.96 83.427,456.497 m 360.527,2.683 74.293,74.358 c 116.96034,122.05787 116.96034,122.05787 233.92069,0.422 l 77.397,-77.463 M 7.15,22 81.262,96.176" class="" style="fill:none;stroke:#ff851b;stroke-width:16.5705;stroke-linecap:butt;stroke-linejoin:miter;stroke-dasharray:none;stroke-opacity:1" id="path1-5" transform="matrix(1.33333,0,0,-1.33333,-0.091,719.755)" sodipodi:nodetypes="cccccccccccc"/>
          <g style="display:inline;fill:#aaaaaa" id="g2-4" class="">
            <path d="M 95.987,238.496 C 55.967,234.87 22.49,206.592 12.233,167.749 8.22,152.551 8.22,134.381 12.233,119.183 21.913,82.528 51.87,55.449 89.637,49.218 c 6.991,-1.154 22.642,-1.154 29.633,0 41.257,6.807 72.625,38.175 79.432,79.431 1.85,11.211 0.998,27.643 -2.028,39.1 -9.657,36.57 -39.811,63.872 -77.228,69.921 -4.454,0.72 -18.981,1.232 -23.46,0.826 m 22.401,-5.72 c 52.756,-8.696 86.477,-59.58 73.702,-111.214 C 183.383,86.378 154.491,60.009 118.211,54.137 111.312,53.02 97.204,53.019 90.518,54.134 51.205,60.693 21.449,90.482 15.132,129.606 c -1.068,6.615 -1.147,20.3 -0.155,26.736 6.489,42.08 39.946,73.562 82.067,77.22 4.23,0.368 17.254,-0.112 21.343,-0.787" class="" style="display:inline;fill:#aaaaaa;fill-opacity:1;stroke:none;stroke-width:0.352778;stroke-opacity:1" transform="matrix(3.68074,0,0,3.68391,-33.947,-177.97)" id="path2-7"/>
          </g>
          <path d="M 253.07635,448.08103 V 245.73487" class="" style="fill:#aaaaaa;fill-opacity:0.766511;stroke:#ff4136;stroke-width:11.3386;stroke-miterlimit:3.6;stroke-dasharray:none" id="path3-6"/>
          <path d="M 453.59318,334.11595 H 253.07635" class="" style="fill:#aaaaaa;fill-opacity:0.766511;stroke:#ff4136;stroke-width:11.3386;stroke-miterlimit:3.6;stroke-dasharray:none" id="path4-5"/>
          <path d="m 278.74028,359.70122 h 174.8529" class="" style="fill:#aaaaaa;fill-opacity:0.766511;stroke:#ff4136;stroke-width:11.3386;stroke-miterlimit:3.6;stroke-dasharray:none" id="path5-6"/>
        </g>
        <g id="g17-9" transform="translate(3470.134,227.49714)" style="fill:#aaaaaa" class="">
          <path d="m 1439.7911,960.88074 103.8424,103.93306 m -100.7384,-585.51986 99.057,-99.14375" class="" style="fill:none;stroke:#ff851b;stroke-width:22.0939;stroke-linecap:butt;stroke-linejoin:miter;stroke-dasharray:none;stroke-opacity:1" id="path13-3" sodipodi:nodetypes="cccc"/>
          <path d="M 1170.4051,1072.4052 C 1023.1018,1059.0474 899.88171,954.87374 862.12836,811.77963 c -14.77081,-55.98807 -14.77081,-122.92471 0,-178.91277 35.62957,-135.03373 145.89354,-234.79032 284.90404,-257.74477 25.732,-4.25123 83.3393,-4.25123 109.0713,0 151.8563,25.07638 267.3138,140.63327 292.3686,292.61666 6.8093,41.30031 3.6733,101.83432 -7.4646,144.04088 -35.5449,134.72059 -146.5339,235.29867 -284.2562,257.58267 -16.394,2.6524 -69.8641,4.5386 -86.3501,3.0429 m 82.4522,-21.072 C 1447.0348,1019.298 1571.153,831.84589 1524.1315,641.63088 1492.087,512.01619 1385.7431,414.87516 1252.2058,393.24325 c -25.3934,-4.11493 -77.3213,-4.11862 -101.9307,-0.0111 -144.7009,24.16277 -254.22504,133.90276 -277.47627,278.03206 -3.93103,24.36906 -4.22181,74.78337 -0.57052,98.49302 23.88432,155.01893 147.03089,270.99577 302.06729,284.47157 15.5695,1.3556 63.5075,-0.4126 78.558,-2.8993" class="" style="display:inline;fill:#aaaaaa;fill-opacity:1;stroke:none;stroke-width:1.29904;stroke-opacity:1" id="path14-7"/>
          <path d="M 1104.1252,819.85845 V 617.51225" class="" style="fill:#aaaaaa;fill-opacity:0.766511;stroke:#ff4136;stroke-width:11.3386;stroke-miterlimit:3.6;stroke-dasharray:none" id="path15-4"/>
          <path d="M 1304.6421,705.89335 H 1104.1252" class="" style="fill:#aaaaaa;fill-opacity:0.766511;stroke:#ff4136;stroke-width:11.3386;stroke-miterlimit:3.6;stroke-dasharray:none" id="path16-5"/>
          <path d="m 1129.7892,731.47865 h 174.8529" class="" style="fill:#aaaaaa;fill-opacity:0.766511;stroke:#ff4136;stroke-width:11.3386;stroke-miterlimit:3.6;stroke-dasharray:none" id="path17-2"/>
        </g>
      </g>
      <g id="layer1-3-3" transform="translate(-18.856659,-854.63004)">
        <text xml:space="preserve" style="font-size:890.151px;font-family:Inter;-inkscape-font-specification:Inter;text-align:start;writing-mode:lr-tb;direction:ltr;text-anchor:start;fill:#aaaaaa;stroke:none;stroke-width:158.955;stroke-linecap:round;stroke-linejoin:round;stroke-dasharray:158.955, 317.911;stroke-dashoffset:0;paint-order:stroke fill markers" x="2518.6655" y="1691.598" id="text32-5-0" class="">
          <tspan sodipodi:role="line" id="tspan32-4-7" x="2518.6655" y="1691.598" style="stroke-width:158.955" class="">=</tspan>
        </text>
      </g>
    </g>
  </g>
</svg>

<svg xmlns="http://www.w3.org/2000/svg" xml:space="preserve" viewBox="0 0 3520.893 1695.849"><g style="fill:#616161aaa"><path d="m441.626 97.989 77.882-77.95M6.03 533.96l77.397-77.463m360.527 2.683 74.293 74.358M7.15 22l74.112 74.176" style="fill:#616161aaa;stroke:#ff851b;stroke-width:16.5705;stroke-linecap:butt;stroke-linejoin:miter;stroke-dasharray:none;stroke-opacity:1" transform="matrix(1.33333 0 0 -1.33333 -.092 1217.1)"/><g style="display:inline;fill:#616161aaa"><path d="M95.987 238.496c-40.02-3.626-73.497-31.904-83.754-70.747-4.013-15.198-4.013-33.368 0-48.566 9.68-36.655 39.637-63.734 77.404-69.965 6.991-1.154 22.642-1.154 29.633 0 41.257 6.807 72.625 38.175 79.432 79.431 1.85 11.211.998 27.643-2.028 39.1-9.657 36.57-39.811 63.872-77.228 69.921-4.454.72-18.981 1.232-23.46.826m22.401-5.72c52.756-8.696 86.477-59.58 73.702-111.214-8.706-35.184-37.598-61.553-73.878-67.425-6.899-1.117-21.007-1.118-27.693-.003-39.313 6.559-69.069 36.348-75.386 75.472-1.068 6.615-1.147 20.3-.155 26.736 6.489 42.08 39.946 73.562 82.067 77.22 4.23.368 17.254-.112 21.343-.787" style="display:inline;fill:#616161aaa;fill-opacity:1;stroke:none;stroke-width:.352778;stroke-opacity:1" transform="matrix(3.68074 0 0 3.68391 -33.948 319.375)"/></g><path d="M187.064 352.704h151.76" style="fill:#616161aaa;fill-opacity:.766511;stroke:#ff4136;stroke-width:8.50394;stroke-miterlimit:3.6;stroke-dasharray:none" transform="matrix(1.33333 0 0 -1.33333 -.092 1217.1)"/><path d="M262.944 202.316v150.388" style="fill:#616161aaa;fill-opacity:.766511;stroke:#ff4136;stroke-width:8.50394;stroke-miterlimit:3.6;stroke-dasharray:none" transform="matrix(1.33333 0 0 -1.33333 12.7 1217.1)"/><path d="M243.755 333.456v-131.14" style="fill:#616161aaa;fill-opacity:.766511;stroke:#ff4136;stroke-width:8.50395;stroke-miterlimit:3.6;stroke-dasharray:none" transform="matrix(1.33333 0 0 -1.33333 12.7 1217.1)"/></g><g style="fill:#616161aaa"><path d="m1439.791 594.88 103.842 103.934M858.998 13.588 962.194 116.87m480.701-3.577 99.057-99.144M860.492 696.2l98.815-98.902" style="fill:#616161aaa;stroke:#ff851b;stroke-width:22.0939;stroke-linecap:butt;stroke-linejoin:miter;stroke-dasharray:none;stroke-opacity:1" transform="translate(444.142 491.568)"/><path d="M1170.405 706.405c-147.303-13.358-270.523-117.531-308.277-260.625-14.77-55.988-14.77-122.925 0-178.913 35.63-135.034 145.894-234.79 284.904-257.745 25.732-4.251 83.34-4.251 109.072 0 151.856 25.076 267.314 140.633 292.368 292.617 6.81 41.3 3.674 101.834-7.464 144.04-35.545 134.721-146.534 235.3-284.256 257.583-16.394 2.653-69.865 4.539-86.35 3.043m82.452-21.072c194.18-32.035 318.299-219.487 271.277-409.702-32.044-129.615-138.388-226.756-271.925-248.388-25.394-4.115-77.322-4.118-101.93-.01-144.702 24.162-254.226 133.902-277.477 278.031-3.931 24.37-4.222 74.784-.57 98.493 23.884 155.02 147.03 270.996 302.067 284.472 15.57 1.355 63.507-.413 78.558-2.9" style="display:inline;fill:#616161aaa;fill-opacity:1;stroke:none;stroke-width:1.29904;stroke-opacity:1" transform="translate(444.142 491.568)"/><path d="M1100.376 255.262h202.346M1214.341 455.778V255.262M1188.756 280.926v174.852" style="fill:#616161aaa;fill-opacity:.766511;stroke:#ff4136;stroke-width:11.3386;stroke-miterlimit:3.6;stroke-dasharray:none" transform="translate(444.142 491.568)"/></g><text xml:space="preserve" x="1343.206" y="762.156" style="font-size:490.929px;font-family:Inter;-inkscape-font-specification:Inter;text-align:start;writing-mode:lr-tb;direction:ltr;text-anchor:start;fill:#616161aaa;stroke:none;stroke-width:87.6656;stroke-linecap:round;stroke-linejoin:round;stroke-dasharray:87.6656,175.332;stroke-dashoffset:0;paint-order:stroke fill markers" transform="translate(-514.466 264.354)">
        <tspan x="1343.206" y="762.156" style="stroke-width:87.6656">V</tspan>
      </text><g style="fill:#616161aaa"><path d="m441.626 97.989 77.882-77.95c115.7-121.636 115.7-121.636 233.78 1.961L827.4 96.176M6.03 533.96l77.397-77.463m360.527 2.683 74.293 74.358c116.96 122.058 116.96 122.058 233.92.422l77.398-77.463M7.15 22l74.112 74.176" style="fill:none;stroke:#ff851b;stroke-width:16.5705;stroke-linecap:butt;stroke-linejoin:miter;stroke-dasharray:none;stroke-opacity:1" transform="matrix(0 1.33333 1.33333 0 2676.336 -.092)"/><g style="display:inline;fill:#616161aaa"><path d="M95.987 238.496c-40.02-3.626-73.497-31.904-83.754-70.747-4.013-15.198-4.013-33.368 0-48.566 9.68-36.655 39.637-63.734 77.404-69.965 6.991-1.154 22.642-1.154 29.633 0 41.257 6.807 72.625 38.175 79.432 79.431 1.85 11.211.998 27.643-2.028 39.1-9.657 36.57-39.811 63.872-77.228 69.921-4.454.72-18.981 1.232-23.46.826m22.401-5.72c52.756-8.696 86.477-59.58 73.702-111.214-8.706-35.184-37.598-61.553-73.878-67.425-6.899-1.117-21.007-1.118-27.693-.003-39.313 6.559-69.069 36.348-75.386 75.472-1.068 6.615-1.147 20.3-.155 26.736 6.489 42.08 39.946 73.562 82.067 77.22 4.23.368 17.254-.112 21.343-.787" style="display:inline;fill:#616161aaa;fill-opacity:1;stroke:none;stroke-width:.352778;stroke-opacity:1" transform="matrix(0 3.68074 -3.68391 0 3574.061 -33.948)"/></g><path d="M253.076 448.081V245.735M453.593 334.116H253.076M278.74 359.701h174.853" style="fill:#616161aaa;fill-opacity:.766511;stroke:#ff4136;stroke-width:11.3386;stroke-miterlimit:3.6;stroke-dasharray:none" transform="rotate(90 1698.046 1698.045)"/></g><g style="fill:#616161aaa"><path d="m1439.791 960.88 103.842 103.934m-100.738-585.52 99.057-99.144" style="fill:none;stroke:#ff851b;stroke-width:22.0939;stroke-linecap:butt;stroke-linejoin:miter;stroke-dasharray:none;stroke-opacity:1" transform="rotate(90 1812.035 1955.833)"/><path d="M1170.405 1072.405c-147.303-13.358-270.523-117.531-308.277-260.625-14.77-55.988-14.77-122.925 0-178.913 35.63-135.034 145.894-234.79 284.904-257.745 25.732-4.251 83.34-4.251 109.072 0 151.856 25.076 267.314 140.633 292.368 292.617 6.81 41.3 3.674 101.834-7.464 144.04-35.545 134.721-146.534 235.3-284.256 257.583-16.394 2.653-69.865 4.539-86.35 3.043m82.452-21.072c194.18-32.035 318.299-219.487 271.277-409.702-32.044-129.615-138.388-226.756-271.925-248.388-25.394-4.115-77.321-4.118-101.93-.01-144.702 24.162-254.226 133.902-277.477 278.031-3.931 24.37-4.222 74.784-.57 98.493 23.884 155.02 147.03 270.996 302.067 284.472 15.57 1.355 63.507-.413 78.558-2.9" style="display:inline;fill:#616161aaa;fill-opacity:1;stroke:none;stroke-width:1.29904;stroke-opacity:1" transform="rotate(90 1812.035 1955.833)"/><path d="M1104.125 819.858V617.512M1304.642 705.893h-200.517M1129.79 731.479h174.852" style="fill:#616161aaa;fill-opacity:.766511;stroke:#ff4136;stroke-width:11.3386;stroke-miterlimit:3.6;stroke-dasharray:none" transform="rotate(90 1812.035 1955.833)"/></g><text xml:space="preserve" x="2518.666" y="1691.598" style="font-size:890.151px;font-family:Inter;-inkscape-font-specification:Inter;text-align:start;writing-mode:lr-tb;direction:ltr;text-anchor:start;fill:#616161aaa;stroke:none;stroke-width:158.955;stroke-linecap:round;stroke-linejoin:round;stroke-dasharray:158.955,317.911;stroke-dashoffset:0;paint-order:stroke fill markers" transform="translate(-533.322 -590.276)">
          <tspan x="2518.666" y="1691.598" style="stroke-width:158.955">=</tspan>
        </text></svg>
